X:1
T:Garmisch-Partenkirchen, 87.87 D
T:Garmisch-Partenkirchen, 87.87 D
T:R. A. Martin, 1904
T:Public Domain Courtesy of the Cyber Hymnal™
C:R. A. Martin, 1904
Z:Public Domain
Z:Courtesy of the Cyber Hymnal™
%%score ( 1 2 ) ( 3 4 )
L:1/8
Q:1/4=105
M:4/4
K:G
V:1 treble 
V:2 treble 
V:3 bass 
V:4 bass 
V:1
 [B,D][DG] | [GB]3 [DG] [DF]2 [DA]2 | [DG]2 [B,D]4 [DG][GB] | [FA]3 [FA] [DG]2 [FA]2 | %4
 [GB]6 [GB][Gd] | [DG]3 [DB] [DA]2 [B,G]2 | [CE]2 [Ec]4 [EB][EA] | [DG]2 [GB]2 [FA]3 [DF] | %8
 [DG]6 [GB][GB] | [Gc]3 [Gc] G2 [FA]2 | [GB]2 [GB]4 [DB][DB] | [DA]3 [Dd] [G^c]2 [Gc]2 | %12
 (d2 c4) [GB][FA] | G3 [DG] [FA]2 [GB]2 | [_Fe]2 [Dd]4 [Ge][Ge] | [Gd]2 G2 [GB]3 [DA] | [DG]6 |] %17
V:2
 x2 | x8 | x8 | x8 | x8 | x8 | x8 | x8 | x8 | x4 G2 x2 | x8 | x8 | F6 x2 | G3 x5 | x8 | x2 G2 x4 | %16
 x6 |] %17
V:3
 G,[G,B,] | [G,D]3 [G,B,] [D,A,]2 [D,C]2 | [G,B,]2 G,4 [G,B,][G,D] | [D,D]3 [C,D] [B,,D]2 [D,D]2 | %4
 [G,D]6 [G,D][G,B,] | [G,B,]3 G, [D,F,]2 [E,G,]2 | [C,G,]2 [C,G,]4 [C,G,][C,C] | %7
 [D,B,]2 [D,D]2 [D,C]3 [D,A,] | [G,,B,]6 [G,D][G,D] | [C,E]3 [C,E] [B,,D]2 [D,D]2 | %10
 [G,,G,D]2 [G,,G,D]4 G,G, | [F,A,]3 [F,A,] [E,A,]2 [E,A,]2 | [D,A,]6 [D,G,][D,C] | %13
 [G,B,]3 [B,,D] [D,D]2 G,2 | [C,G,]2 [C,G,]4 [C,C][C,C] | [D,B,]2 [D,B,]2 [D,D]3 [D,C] | %16
 [G,,B,]6 |] %17
V:4
 G, x | x8 | x2 G,4 x2 | x8 | x8 | x3 G, x4 | x8 | x8 | x8 | x8 | x6 G,G, | x8 | x8 | x6 G,2 | x8 | %15
 x8 | x6 |] %17

